svg/u1f46e_1f3fb_200d_2642.svg

<svg viewBox="0 0 128 128" xmlns="http://www.w3.org/2000/svg">
  <g id="shirt_x5F_police_1_">
    <linearGradient id="SVGID_1_" gradientTransform="matrix(1 0 0 -1 0 128)" gradientUnits="userSpaceOnUse" x1="64.023" x2="64.023" y1="31.6141" y2="2.371">
      <stop offset="3.200000e-03" stop-color="#3B78E7"/>
      <stop offset="0.2231" stop-color="#386EDA"/>
      <stop offset="0.6286" stop-color="#3052B8"/>
      <stop offset="1" stop-color="#283593"/>
    </linearGradient>
    <path d="M64.16,95.91c-0.05,0-0.09,0-0.14,0c-25.65,0.03-52,7.1-52,24.99v3.01h1.5h1.5h98h1.5h1.5 v-3.01C116.02,104.04,89.93,95.91,64.16,95.91z" fill="url(#SVGID_1_)"/>
  </g>
  <g id="epaulets_1_">
    <g id="epaulets_x5F_fill_1_">
      <path d="M76.35,106.18c0,0,6.88,0.59,13.84,2.73c13,4,16.91-2.86,16.91-2.86s-14.22-9.32-32.22-9.45 C74.87,96.6,73.68,105.46,76.35,106.18z" fill="#283593"/>
      <path d="M20.61,105.91c0,0,4,7,17,3c6.96-2.14,13.84-2.73,13.84-2.73c2.66-0.73,1.47-9.58,1.47-9.58 C34.92,96.73,20.61,105.91,20.61,105.91z" fill="#283593"/>
    </g>
  </g>
  <g id="name_x5F_tag_x5F_fill_1_">
    <path d="M45.77,119.62H34.86c-1.2,0-2.17-0.97-2.17-2.17l0,0c0-1.2,0.97-2.17,2.17-2.17h10.92 c1.2,0,2.17,0.97,2.17,2.17l0,0C47.94,118.65,46.97,119.62,45.77,119.62z" fill="#E0E0E0"/>
  </g>
  <g id="patch_1_">
    <g id="patch_x5F_fill_1_">
      <g>
        <linearGradient id="SVGID_2_" gradientTransform="matrix(1 0 0 -1 0 128)" gradientUnits="userSpaceOnUse" x1="116.4018" x2="106.563" y1="9.5035" y2="9.5035">
          <stop offset="4.000000e-03" stop-color="#666666"/>
          <stop offset="0.0985" stop-color="#606060"/>
          <stop offset="0.6803" stop-color="#3F3F3F"/>
          <stop offset="1" stop-color="#333333"/>
        </linearGradient>
        <path d="M113.9,113.08l-5,0.08l-2.34,4.29l4.83,6.46h4.99C116.65,116.54,113.9,113.08,113.9,113.08 z" fill="url(#SVGID_2_)"/>
      </g>
      <g>
        <linearGradient id="SVGID_3_" gradientTransform="matrix(1 0 0 -1 0 128)" gradientUnits="userSpaceOnUse" x1="11.5972" x2="21.436" y1="9.5035" y2="9.5035">
          <stop offset="4.000000e-03" stop-color="#666666"/>
          <stop offset="0.0985" stop-color="#606060"/>
          <stop offset="0.6803" stop-color="#3F3F3F"/>
          <stop offset="1" stop-color="#333333"/>
        </linearGradient>
        <path d="M19.1,113.16l-5-0.08c0,0-2.74,3.46-2.48,10.83h4.99l4.83-6.46L19.1,113.16z" fill="url(#SVGID_3_)"/>
      </g>
    </g>
    <g id="patch_x5F_stroke_1_">
      <path d="M109.35,113.9l4.56-0.08c0.41-0.01,0.74-0.35,0.74-0.76s-0.32-0.71-0.76-0.74l-5.44,0.09 l-3.02,5.55l4.23,5.95h1.84l-4.31-6.05L109.35,113.9z" fill="#BDBDBD"/>
      <path d="M111.86,116.61l3.38-0.14c0.28-0.01,0.49-0.24,0.48-0.52c-0.01-0.28-0.25-0.47-0.52-0.48 l-3.87,0.16l-1.57,2.28l3.95,6.01h1.2l-3.94-5.99L111.86,116.61z" fill="#BDBDBD"/>
      <path d="M19.55,112.42l-5.44-0.09c-0.01,0-0.01,0-0.01,0c-0.41,0-0.74,0.33-0.75,0.74 c-0.01,0.41,0.32,0.76,0.74,0.76l4.57,0.08l2.15,3.96l-4.31,6.05h1.84l4.23-5.95L19.55,112.42z" fill="#BDBDBD"/>
      <path d="M16.67,115.63l-3.88-0.16c-0.28,0.01-0.51,0.2-0.52,0.48c-0.01,0.28,0.2,0.51,0.48,0.52l3.38,0.14 l0.91,1.31l-3.94,5.99h1.2l3.95-6.01L16.67,115.63z" fill="#BDBDBD"/>
    </g>
  </g>
  <g id="undershirt_1_">
    <polygon fill="#212121" points="64.01,121.86 73.33,104.78 53.43,104.78 "/>
  </g>
  <g id="neck">
    <path d="M54.92,86.08v13.98c0,4.51,3.7,8.17,8.26,8.17h1.65c4.56,0,8.26-3.66,8.26-8.17V86.08H64 L54.92,86.08z" fill="#EDC391"/>
  </g>
  <g id="ears">
    <path d="M91.33,50.43h-7.37H44.04h-7.37c-5.89,0-10.71,5.14-10.71,11.41s4.82,11.41,10.71,11.41h7.37h39.91 h7.37c5.89,0,10.71-5.14,10.71-11.41S97.22,50.43,91.33,50.43z" fill="#EDC391"/>
  </g>
  <path id="head" d="M64,11.07L64,11.07L64,11.07c-17.4,0-33.52,18.61-33.52,45.4 c0,26.64,16.61,39.81,33.52,39.81S97.52,83.1,97.52,56.46C97.52,29.68,81.4,11.07,64,11.07z" fill="#F9DDBD"/>
  <g id="lapels_1_">
    <g id="lapels_x5F_fill_1_">
      <polygon fill="#3674CE" points="47.12,97.09 39.12,113.32 49.99,110.05 64.01,121.86 54.9,96.18 "/>
      <polygon fill="#3674CE" points="73.14,96.18 64.04,121.86 78.83,110.22 88.93,113.32 80.93,97.09 "/>
    </g>
  </g>
  <path id="mouth" d="M72.42,76.14c-3.18,1.89-13.63,1.89-16.81,0c-1.83-1.09-3.7,0.58-2.94,2.24 c0.75,1.63,6.44,5.42,11.37,5.42s10.55-3.79,11.3-5.42C76.09,76.72,74.25,75.05,72.42,76.14z" fill="#444444"/>
  <path id="nose" d="M67.86,68.06c-0.11-0.04-0.21-0.07-0.32-0.08h-7.08c-0.11,0.01-0.22,0.04-0.32,0.08 c-0.64,0.26-0.99,0.92-0.69,1.63c0.3,0.71,1.71,2.69,4.55,2.69s4.25-1.99,4.55-2.69C68.85,68.98,68.5,68.32,67.86,68.06z" fill="#DBA689"/>
  <g id="eyes">
    <ellipse cx="47.56" cy="58.81" fill="#312D2D" rx="4.93" ry="5.1"/>
    <ellipse cx="80.44" cy="58.81" fill="#312D2D" rx="4.93" ry="5.1"/>
  </g>
  <g id="eyebrows">
    <path d="M40.02,50.73c3.18-4.51,10.66-4.66,14.41-0.82c0.65,0.67,1.34,1.53,0.85,2.5 c-0.54,1.07-1.65,0.9-2.56,0.53c-2.43-0.98-4.94-1.42-7.55-0.89c-1.13,0.23-2.1,0.7-3.17,1.08C40.56,53.62,39.09,52.12,40.02,50.73 z" fill="#454140"/>
    <path d="M86.08,53.13c-2.23-0.97-4.49-1.53-6.95-1.25c-1.12,0.13-2.22,0.42-3.26,0.83 c-0.83,0.33-1.72,0.86-2.58,0.28c-2.45-1.69,1.89-4.44,3.17-4.99c2.76-1.19,6.05-1.08,8.72,0.31c1.06,0.55,2.21,1.35,2.84,2.4 C88.81,52.02,87.63,53.76,86.08,53.13z" fill="#454140"/>
  </g>
  <g id="hairGroup">
    <path id="hair_7_" d="M64.02,3.86L64.02,3.86c-0.01,0-0.01,0-0.02,0s-0.01,0-0.02,0v0 C18.55,4.1,27.85,56,27.85,56s2.04,5.35,2.97,7.71c0.13,0.34,0.63,0.3,0.71-0.05c0.97-4.34,4.46-19.73,6.22-24.41 c1.04-2.76,3.9-4.36,6.79-3.83c4.45,0.81,11.55,1.81,19.37,1.81c0.03,0,0.06,0,0.08,0s0.06,0,0.08,0c7.82,0,14.92-1,19.37-1.81 c2.9-0.53,5.76,1.08,6.79,3.83c1.75,4.66,5.22,19.96,6.2,24.36c0.08,0.36,0.58,0.39,0.71,0.05l2.98-7.67 C100.15,56,109.46,4.1,64.02,3.86z" fill="#312D2D"/>
    <radialGradient id="hairHighlights_1_" cx="64.0005" cy="81.0705" gradientTransform="matrix(1 0 0 -1.1282 0 138.3922)" gradientUnits="userSpaceOnUse" r="38.0924">
      <stop offset="0.7945" stop-color="#454140" stop-opacity="0"/>
      <stop offset="1" stop-color="#454140"/>
    </radialGradient>
    <path id="hairHighlights" d="M100.15,56c0,0,9.31-51.9-36.13-52.14v0c-0.01,0-0.01,0-0.02,0 h0c-0.01,0-0.01,0-0.02,0l0,0c-0.71,0-1.4,0.02-2.08,0.05c-1.35,0.06-2.66,0.16-3.92,0.31c-0.01,0-0.03,0-0.04,0 c-0.09,0.01-0.17,0.03-0.26,0.04C19.44,9.07,27.85,56,27.85,56l2.98,7.68c0.13,0.34,0.62,0.31,0.7-0.05 c0.98-4.39,4.46-19.71,6.22-24.37c1.04-2.76,3.9-4.36,6.79-3.83c4.45,0.81,11.55,1.81,19.37,1.81c0.03,0,0.06,0,0.08,0 s0.06,0,0.08,0c7.82,0,14.92-1,19.37-1.81c2.9-0.53,5.76,1.08,6.79,3.83c1.76,4.68,5.25,20.1,6.21,24.42 c0.08,0.36,0.57,0.39,0.7,0.05C98.1,61.37,100.15,56,100.15,56z" fill="url(#hairHighlights_1_)"/>
  </g>
  <g id="police_x5F_hat_1_">
    <g id="visor">
      <g id="visor_x5F_fill_1_">
        <linearGradient id="SVGID_4_" gradientTransform="matrix(1 0 0 -1 0 128)" gradientUnits="userSpaceOnUse" x1="64.255" x2="64.255" y1="103.7539" y2="82.9202">
          <stop offset="4.000000e-03" stop-color="#666666"/>
          <stop offset="0.0985" stop-color="#606060"/>
          <stop offset="0.6803" stop-color="#3F3F3F"/>
          <stop offset="1" stop-color="#333333"/>
        </linearGradient>
        <path d="M64.01,24.14c-30.63,0-35.54,11.39-35.54,11.39s9.44,9.94,35.54,10.13 c26.1-0.19,36.02-10.76,36.02-10.76S94.64,24.14,64.01,24.14z" fill="url(#SVGID_4_)"/>
      </g>
    </g>
    <linearGradient id="SVGID_5_" gradientTransform="matrix(1 0 0 -1 0 128)" gradientUnits="userSpaceOnUse" x1="64.2045" x2="64.2045" y1="123.787" y2="93.7481">
      <stop offset="3.200000e-03" stop-color="#3B78E7"/>
      <stop offset="0.0115" stop-color="#3B77E6"/>
      <stop offset="0.2985" stop-color="#335BC2"/>
      <stop offset="0.5675" stop-color="#2D46A8"/>
      <stop offset="0.8091" stop-color="#293998"/>
      <stop offset="1" stop-color="#283593"/>
    </linearGradient>
    <path d="M24.05,34.44c1.56,6.21,3.05,8.84,3.05,8.84c1.58-2.01,10.99-11.34,37.04-11.34 c0.01,0,0.11,0,0.11,0l0,0c0,0,0,0,0.03,0c26.05,0,35.03,9.39,36.61,11.39c0,0,1.88-2.8,3.45-9.01 c3.62-14.36-14.3-30.45-40.09-30.45C38.52,3.86,20.45,20.1,24.05,34.44z" fill="url(#SVGID_5_)"/>
    <path d="M97.06,35.55c-0.19-1.12-0.76-2.11-1.58-2.81c-3.45-2.91-13.75-10.12-31.22-10.12 c-17.92,0-27.95,7.21-31.27,10.12c-0.79,0.7-1.33,1.67-1.52,2.76l-0.01,0.06c-0.23,1.32,0.08,2.57,0.72,3.55 c5.33-3.29,15.19-7.17,31.97-7.17c0.01,0,0.11,0,0.11,0s0,0,0.03,0c17.05,0,26.79,4.02,31.92,7.36 C96.94,38.29,97.3,36.97,97.06,35.55z" fill="#3B78E7"/>
    <path d="M72.22,13.81l-0.31-0.4c-0.14-0.18-0.37-0.29-0.61-0.29c-0.26,0-0.5,0.12-0.64,0.33 c-0.55,0.84-1.36,1.4-2.79,1.4c-1.39,0-2.4-1.28-3.01-2.07c-0.19-0.25-0.49-0.41-0.82-0.41c-0.33,0-0.63,0.16-0.82,0.41 c-0.6,0.79-1.56,2.07-2.95,2.07c-1.43,0-2.24-0.57-2.79-1.4c-0.14-0.21-0.38-0.33-0.64-0.33c-0.24,0-0.47,0.11-0.61,0.29l-0.31,0.4 c-0.37,0.48-0.43,1.12-0.15,1.65c0.42,0.8,0.64,1.68,0.64,2.57v3.48c0,2.54,4.14,7.72,7.65,7.72s7.65-5.18,7.65-7.72v-3.48 c0-0.89,0.22-1.77,0.64-2.57C72.65,14.92,72.6,14.29,72.22,13.81z" fill="#FFCC00"/>
  </g>
</svg>

<svg viewBox="0 0 128 128" xmlns="http://www.w3.org/2000/svg">
  <defs>
    <linearGradient id="SVGID_1_" gradientTransform="matrix(1 0 0 -1 0 0)" gradientUnits="userSpaceOnUse" x1="64.023" x2="64.023" y1="-96.3859" y2="-125.629">
      <stop offset="3.200000e-03" stop-color="#3B78E7"/>
      <stop offset="0.2231" stop-color="#386EDA"/>
      <stop offset="0.6286" stop-color="#3052B8"/>
      <stop offset="1" stop-color="#283593"/>
    </linearGradient>
    <radialGradient id="hairHighlights_1_" cx="64.0005" cy="-41.595871" gradientTransform="matrix(1 0 0 -1.1282 0 0)" gradientUnits="userSpaceOnUse" r="38.0924">
      <stop offset="0.7945" stop-color="#454140" stop-opacity="0"/>
      <stop offset="1" stop-color="#454140"/>
    </radialGradient>
    <linearGradient id="SVGID_5_" gradientTransform="matrix(1 0 0 -1 0 0)" gradientUnits="userSpaceOnUse" x1="64.2045" x2="64.2045" y1="-4.213" y2="-34.2519">
      <stop offset="3.200000e-03" stop-color="#3B78E7"/>
      <stop offset="0.0115" stop-color="#3B77E6"/>
      <stop offset="0.2985" stop-color="#335BC2"/>
      <stop offset="0.5675" stop-color="#2D46A8"/>
      <stop offset="0.8091" stop-color="#293998"/>
      <stop offset="1" stop-color="#283593"/>
    </linearGradient>
    <linearGradient id="SVGID_2_" gradientTransform="matrix(1 0 0 -1 0 0)" gradientUnits="userSpaceOnUse" x1="116.4018" x2="106.563" y1="-118.4965" y2="-118.4965">
      <stop offset="4.000000e-03" stop-color="#666666"/>
      <stop offset="0.0985" stop-color="#606060"/>
      <stop offset="0.6803" stop-color="#3F3F3F"/>
      <stop offset="1" stop-color="#333333"/>
    </linearGradient>
    <linearGradient id="SVGID_3_" gradientTransform="matrix(1 0 0 -1 0 0)" gradientUnits="userSpaceOnUse" x1="11.5972" x2="21.436" y1="-118.4965" y2="-118.4965">
      <stop offset="4.000000e-03" stop-color="#666666"/>
      <stop offset="0.0985" stop-color="#606060"/>
      <stop offset="0.6803" stop-color="#3F3F3F"/>
      <stop offset="1" stop-color="#333333"/>
    </linearGradient>
    <linearGradient id="SVGID_4_" gradientTransform="matrix(1 0 0 -1 0 0)" gradientUnits="userSpaceOnUse" x1="64.255" x2="64.255" y1="-24.2461" y2="-45.0798">
      <stop offset="4.000000e-03" stop-color="#666666"/>
      <stop offset="0.0985" stop-color="#606060"/>
      <stop offset="0.6803" stop-color="#3F3F3F"/>
      <stop offset="1" stop-color="#333333"/>
    </linearGradient>
  </defs>
  <path d="M64.16,95.91 C64.11,95.91 64.07,95.91 64.02,95.91 C38.37,95.94 12.02,103.01 12.02,120.9 L12.02,123.91 L13.52,123.91 L15.02,123.91 L113.02,123.91 L114.52,123.91 L116.02,123.91 L116.02,120.9 C116.02,104.04 89.93,95.91 64.16,95.91 Z" fill="url(#SVGID_1_)"/>
  <path d="M76.35,106.18 C76.35,106.18 83.23,106.77 90.19,108.91 C103.19,112.91 107.1,106.05 107.1,106.05 C107.1,106.05 92.88,96.73 74.88,96.6 C74.87,96.6 73.68,105.46 76.35,106.18 Z" fill="#283593"/>
  <path d="M20.61,105.91 C20.61,105.91 24.61,112.91 37.61,108.91 C44.57,106.77 51.45,106.18 51.45,106.18 C54.11,105.45 52.92,96.6 52.92,96.6 C34.92,96.73 20.61,105.91 20.61,105.91 Z" fill="#283593"/>
  <path d="M45.77,119.62 L34.86,119.62 C33.66,119.62 32.69,118.65 32.69,117.45 L32.69,117.45 C32.69,116.25 33.66,115.28 34.86,115.28 L45.78,115.28 C46.98,115.28 47.95,116.25 47.95,117.45 L47.95,117.45 C47.94,118.65 46.97,119.62 45.77,119.62 Z" fill="#E0E0E0"/>
  <path d="M113.9,113.08 L108.9,113.16 L106.56,117.45 L111.39,123.91 L116.38,123.91 C116.65,116.54 113.9,113.08 113.9,113.08 Z" fill="url(#SVGID_2_)"/>
  <path d="M19.1,113.16 L14.1,113.08 C14.1,113.08 11.36,116.54 11.62,123.91 L16.61,123.91 L21.44,117.45 L19.1,113.16 Z" fill="url(#SVGID_3_)"/>
  <path d="M109.35,113.9 L113.91,113.82 C114.32,113.81 114.65,113.47 114.65,113.06 C114.65,112.65 114.33,112.35 113.89,112.32 L108.45,112.41 L105.43,117.96 L109.66,123.91 L111.5,123.91 L107.19,117.86 L109.35,113.9 Z" fill="#BDBDBD"/>
  <path d="M111.86,116.61 L115.24,116.47 C115.52,116.46 115.73,116.23 115.72,115.95 C115.71,115.67 115.47,115.48 115.2,115.47 L111.33,115.63 L109.76,117.91 L113.71,123.92 L114.91,123.92 L110.97,117.93 L111.86,116.61 Z" fill="#BDBDBD"/>
  <path d="M19.55,112.42 L14.11,112.33 C14.1,112.33 14.1,112.33 14.1,112.33 C13.69,112.33 13.36,112.66 13.35,113.07 C13.34,113.48 13.67,113.83 14.09,113.83 L18.66,113.91 L20.81,117.87 L16.5,123.92 L18.34,123.92 L22.57,117.97 L19.55,112.42 Z" fill="#BDBDBD"/>
  <path d="M16.67,115.63 L12.79,115.47 C12.51,115.48 12.28,115.67 12.27,115.95 C12.26,116.23 12.47,116.46 12.75,116.47 L16.13,116.61 L17.04,117.92 L13.1,123.91 L14.3,123.91 L18.25,117.9 L16.67,115.63 Z" fill="#BDBDBD"/>
  <path d="M64.01,121.86 L73.33,104.78 L53.43,104.78 Z" fill="#212121"/>
  <path d="M54.92,86.08 L54.92,100.06 C54.92,104.57 58.62,108.23 63.18,108.23 L64.83,108.23 C69.39,108.23 73.09,104.57 73.09,100.06 L73.09,86.08 L64,86.08 L54.92,86.08 Z" fill="#EDC391"/>
  <path d="M91.33,50.43 L83.96,50.43 L44.04,50.43 L36.67,50.43 C30.78,50.43 25.96,55.57 25.96,61.84 C25.96,68.11 30.78,73.25 36.67,73.25 L44.04,73.25 L83.95,73.25 L91.32,73.25 C97.21,73.25 102.03,68.11 102.03,61.84 C102.03,55.57 97.22,50.43 91.33,50.43 Z" fill="#EDC391"/>
  <path id="head" d="M64,11.07 L64,11.07 L64,11.07 C46.6,11.07 30.48,29.68 30.48,56.47 C30.48,83.11 47.09,96.28 64,96.28 C80.91,96.28 97.52,83.1 97.52,56.46 C97.52,29.68 81.4,11.07 64,11.07 Z" fill="#F9DDBD"/>
  <path d="M47.12,97.09 L39.12,113.32 L49.99,110.05 L64.01,121.86 L54.9,96.18 Z" fill="#3674CE"/>
  <path d="M73.14,96.18 L64.04,121.86 L78.83,110.22 L88.93,113.32 L80.93,97.09 Z" fill="#3674CE"/>
  <path id="mouth" d="M72.42,76.14 C69.24,78.03 58.79,78.03 55.61,76.14 C53.78,75.05 51.91,76.72 52.67,78.38 C53.42,80.01 59.11,83.8 64.04,83.8 C68.97,83.8 74.59,80.01 75.34,78.38 C76.09,76.72 74.25,75.05 72.42,76.14 Z" fill="#444444"/>
  <path id="nose" d="M67.86,68.06 C67.75,68.02 67.65,67.99 67.54,67.98 L60.46,67.98 C60.35,67.99 60.24,68.02 60.14,68.06 C59.5,68.32 59.15,68.98 59.45,69.69 C59.75,70.4 61.16,72.38 64,72.38 C66.84,72.38 68.25,70.39 68.55,69.69 C68.85,68.98 68.5,68.32 67.86,68.06 Z" fill="#DBA689"/>
  <path d="M52.49,58.81 A4.93 5.1 0 1 1 42.63,58.81 A4.93 5.1 0 1 1 52.49,58.81 Z" fill="#312D2D"/>
  <path d="M85.37,58.81 A4.93 5.1 0 1 1 75.51,58.81 A4.93 5.1 0 1 1 85.37,58.81 Z" fill="#312D2D"/>
  <path d="M40.02,50.73 C43.2,46.22 50.68,46.07 54.43,49.91 C55.08,50.58 55.77,51.44 55.28,52.41 C54.74,53.48 53.63,53.31 52.72,52.94 C50.29,51.96 47.78,51.52 45.17,52.05 C44.04,52.28 43.07,52.75 42,53.13 C40.56,53.62 39.09,52.12 40.02,50.73 Z" fill="#454140"/>
  <path d="M86.08,53.13 C83.85,52.16 81.59,51.6 79.13,51.88 C78.01,52.01 76.91,52.3 75.87,52.71 C75.04,53.04 74.15,53.57 73.29,52.99 C70.84,51.3 75.18,48.55 76.46,48 C79.22,46.81 82.51,46.92 85.18,48.31 C86.24,48.86 87.39,49.66 88.02,50.71 C88.81,52.02 87.63,53.76 86.08,53.13 Z" fill="#454140"/>
  <path id="hair_7_" d="M64.02,3.86 L64.02,3.86 C64.01,3.86 64.01,3.86 64,3.86 C63.99,3.86 63.99,3.86 63.98,3.86 L63.98,3.86 C18.55,4.1 27.85,56 27.85,56 C27.85,56 29.89,61.35 30.82,63.71 C30.95,64.05 31.45,64.01 31.53,63.66 C32.5,59.32 35.99,43.93 37.75,39.25 C38.79,36.49 41.65,34.89 44.54,35.42 C48.99,36.23 56.09,37.23 63.91,37.23 C63.94,37.23 63.97,37.23 63.99,37.23 C64.01,37.23 64.05,37.23 64.07,37.23 C71.89,37.23 78.99,36.23 83.44,35.42 C86.34,34.89 89.2,36.5 90.23,39.25 C91.98,43.91 95.45,59.21 96.43,63.61 C96.51,63.97 97.01,64 97.14,63.66 L100.12,55.99 C100.15,56 109.46,4.1 64.02,3.86 Z" fill="#312D2D"/>
  <path id="hairHighlights" d="M100.15,56 C100.15,56 109.46,4.1 64.02,3.86 L64.02,3.86 C64.01,3.86 64.01,3.86 64,3.86 L64,3.86 C63.99,3.86 63.99,3.86 63.98,3.86 L63.98,3.86 C63.27,3.86 62.58,3.88 61.9,3.91 C60.55,3.97 59.24,4.07 57.98,4.22 C57.97,4.22 57.95,4.22 57.94,4.22 C57.85,4.23 57.77,4.25 57.68,4.26 C19.44,9.07 27.85,56 27.85,56 L30.83,63.68 C30.96,64.02 31.45,63.99 31.53,63.63 C32.51,59.24 35.99,43.92 37.75,39.26 C38.79,36.5 41.65,34.9 44.54,35.43 C48.99,36.24 56.09,37.24 63.91,37.24 C63.94,37.24 63.97,37.24 63.99,37.24 C64.01,37.24 64.05,37.24 64.07,37.24 C71.89,37.24 78.99,36.24 83.44,35.43 C86.34,34.9 89.2,36.51 90.23,39.26 C91.99,43.94 95.48,59.36 96.44,63.68 C96.52,64.04 97.01,64.07 97.14,63.73 C98.1,61.37 100.15,56 100.15,56 Z" fill="url(#hairHighlights_1_)"/>
  <path d="M64.01,24.14 C33.38,24.14 28.47,35.53 28.47,35.53 C28.47,35.53 37.91,45.47 64.01,45.66 C90.11,45.47 100.03,34.9 100.03,34.9 C100.03,34.9 94.64,24.14 64.01,24.14 Z" fill="url(#SVGID_4_)"/>
  <path d="M24.05,34.44 C25.61,40.65 27.1,43.28 27.1,43.28 C28.68,41.27 38.09,31.94 64.14,31.94 C64.15,31.94 64.25,31.94 64.25,31.94 L64.25,31.94 C64.25,31.94 64.25,31.94 64.28,31.94 C90.33,31.94 99.31,41.33 100.89,43.33 C100.89,43.33 102.77,40.53 104.34,34.32 C107.96,19.96 90.04,3.87 64.25,3.87 C38.52,3.86 20.45,20.1 24.05,34.44 Z" fill="url(#SVGID_5_)"/>
  <path d="M97.06,35.55 C96.87,34.43 96.3,33.44 95.48,32.74 C92.03,29.83 81.73,22.62 64.26,22.62 C46.34,22.62 36.31,29.83 32.99,32.74 C32.2,33.44 31.66,34.41 31.47,35.5 L31.46,35.56 C31.23,36.88 31.54,38.13 32.18,39.11 C37.51,35.82 47.37,31.94 64.15,31.94 C64.16,31.94 64.26,31.94 64.26,31.94 C64.26,31.94 64.26,31.94 64.29,31.94 C81.34,31.94 91.08,35.96 96.21,39.3 C96.94,38.29 97.3,36.97 97.06,35.55 Z" fill="#3B78E7"/>
  <path d="M72.22,13.81 L71.91,13.41 C71.77,13.23 71.54,13.12 71.3,13.12 C71.04,13.12 70.8,13.24 70.66,13.45 C70.11,14.29 69.3,14.85 67.87,14.85 C66.48,14.85 65.47,13.57 64.86,12.78 C64.67,12.53 64.37,12.37 64.04,12.37 C63.71,12.37 63.41,12.53 63.22,12.78 C62.62,13.57 61.66,14.85 60.27,14.85 C58.84,14.85 58.03,14.28 57.48,13.45 C57.34,13.24 57.1,13.12 56.84,13.12 C56.6,13.12 56.37,13.23 56.23,13.41 L55.92,13.81 C55.55,14.29 55.49,14.93 55.77,15.46 C56.19,16.26 56.41,17.14 56.41,18.03 L56.41,21.51 C56.41,24.05 60.55,29.23 64.06,29.23 C67.57,29.23 71.71,24.05 71.71,21.51 L71.71,18.03 C71.71,17.14 71.93,16.26 72.35,15.46 C72.65,14.92 72.6,14.29 72.22,13.81 Z" fill="#FFCC00"/>
</svg>
